X: 20636
T: John Ryan's
R: polka
M: 2/4
K: Dmajor
|:"D"d"d"d B/c/"d"d/B/|A"d"F A"d"F|d"d"d B/c/"d"d/B/|"G"A"g"F "A"E"a"D|
"D"d"d"d B/c/"d"d/B/|A"d"F A"d"d/e/|"G"f"g"d "A"e"a"c|1 "D"(d"d"d) (d"d"d):|2 "D"(d"d"d) de||
|:"D"f"d"d d"d"e/f/|"G"g"g"f "A"e"a"d|"D"f"d"d A"d"d|f"d"d/f/ "A"a"a"a/g/|
"D"f"d"d d"d"e/f/|"G"g"g"f "A"e"a"d|"D"f"d"d "A"e"a"c|1 "D"(d"d"d) de:|2 "D"(d"d"d) (d"d"d)||

